public/images/slm.svg

<svg width="96" height="40" viewBox="0 0 96 40" fill="none" xmlns="http://www.w3.org/2000/svg">
<path d="M57.8504 4.65015H56.0239V20.9126H57.8504V4.65015Z" fill="#343434"/>
<path d="M63.9169 4.65015H62.0904V20.9126H63.9169V4.65015Z" fill="#343434"/>
<path d="M69.9993 10.0762H68.1728V20.9124H69.9993V10.0762Z" fill="#343434"/>
<path d="M73.1958 15.6492V15.4863C73.1958 12.2273 75.2996 9.96226 78.2839 9.96226C80.7954 9.96226 83.1764 11.4614 83.1764 15.3233V15.8774H74.9897C75.0713 18.3379 76.2617 19.6904 78.4796 19.6904C80.1594 19.6904 81.1379 19.0712 81.3662 17.8165H83.0948C82.7198 19.9837 80.9095 21.1081 78.4633 21.1081C75.3811 21.1081 73.1958 18.9571 73.1958 15.6492ZM81.3988 14.4923C81.2357 12.2762 80.0778 11.3636 78.2839 11.3636C76.4901 11.3636 75.3322 12.5532 75.0386 14.4923H81.3988Z" fill="#343434"/>
<path d="M43.6945 17.9305C43.6945 15.4374 46.3201 14.5901 49.1414 14.5901H50.7233V13.8079C50.7233 12.0969 50.0546 11.3799 48.3912 11.3799C46.8909 11.3799 46.0591 11.9991 45.8961 13.319H44.1511C44.3794 10.8748 46.3527 9.96226 48.4564 9.96226C50.5602 9.96226 52.4193 10.8096 52.4193 13.8079V20.9125H50.6906V19.56C49.9079 20.6192 48.6195 21.2058 47.2986 21.1244C45.2764 21.1244 43.6782 20.1467 43.6782 17.9468L43.6945 17.9305ZM50.707 17.1647V15.7959H49.2066C47.0213 15.7959 45.4231 16.3173 45.4231 17.9142C45.4231 19.0223 45.945 19.723 47.4779 19.723C49.3045 19.723 50.707 18.7942 50.707 17.1158" fill="#343434"/>
<path d="M73.1633 32.3841C73.1633 29.891 75.8215 29.0436 78.6102 29.0436H80.1921V28.2615C80.1921 26.5505 79.5235 25.8335 77.8601 25.8335C76.3597 25.8335 75.528 26.4527 75.3649 27.7726H73.6363C73.8646 25.3121 75.8379 24.4158 77.9416 24.4158C80.0453 24.4158 81.9045 25.2632 81.9045 28.2615V35.3661H80.1758V33.9973C79.393 35.0565 78.121 35.6431 76.7837 35.5616C74.7615 35.5616 73.1633 34.6002 73.1633 32.4004V32.3841ZM80.1758 31.6182V30.2494H78.6755C76.4902 30.2494 74.892 30.7709 74.892 32.3678C74.892 33.4759 75.4138 34.1765 76.9468 34.1765C78.7733 34.1765 80.1758 33.2477 80.1758 31.5693" fill="#343434"/>
<path d="M85.0357 30.1028V29.9398C85.0357 26.6808 87.1395 24.4158 90.1239 24.4158C92.6353 24.4158 95 25.915 95 29.7769V30.3309H86.8296C86.9112 32.7915 88.1017 34.144 90.3196 34.144C91.9993 34.144 92.9452 33.5247 93.2061 32.27H94.9348C94.5597 34.4373 92.7495 35.5616 90.3033 35.5616C87.2373 35.5616 85.0521 33.4107 85.0357 30.1028ZM93.255 28.9458C93.0919 26.7297 91.9341 25.8172 90.1402 25.8172C88.3463 25.8172 87.1884 27.0067 86.8949 28.9458H93.255Z" fill="#343434"/>
<path d="M32.3603 17.6046H34.0401C34.1705 18.8756 34.8555 19.6904 36.6004 19.6904C38.2476 19.6904 38.9651 19.1364 38.9651 17.9794C38.9651 16.8225 38.1171 16.4803 36.4211 16.1707C33.5998 15.6492 32.6376 14.8671 32.6376 12.9931C32.6376 10.9889 34.6109 9.96226 36.3232 9.96226C38.2802 9.96226 39.9599 10.7444 40.2535 13.0909H38.59C38.3291 11.8851 37.6768 11.3636 36.2906 11.3636C35.0349 11.3636 34.2358 11.9828 34.2358 12.928C34.2358 13.8731 34.7576 14.2804 36.7635 14.6389C39.014 15.0463 40.5796 15.5515 40.5796 17.8328C40.5796 19.7882 39.2261 21.1081 36.6004 21.1081C33.9585 21.1081 32.4419 19.8045 32.344 17.6046" fill="#343434"/>
<path d="M67.8307 5.49736C67.8307 4.7315 68.4504 4.11229 69.2332 4.11229C70.016 4.11229 70.6357 4.7315 70.6357 5.49736C70.6357 6.26323 70.016 6.88244 69.2332 6.88244C68.4504 6.86615 67.8307 6.26323 67.8307 5.49736Z" fill="#343434"/>
<path d="M24.2881 5.49733C24.2881 4.9433 24.6306 4.43815 25.1524 4.21002C25.6743 3.99818 26.2777 4.11225 26.6854 4.51962C27.0931 4.9107 27.2072 5.51362 26.9789 6.03506C26.7669 6.5565 26.2451 6.8824 25.6743 6.8824C24.9078 6.86611 24.2881 6.26319 24.2881 5.49733Z" fill="#343434"/>
<path d="M66.5426 24.416C65.3032 24.3997 64.1616 25.0515 63.5582 26.1107C63.1016 25.0515 62.0416 24.3834 60.9 24.416C59.628 24.3834 58.4212 25.0352 57.7689 26.127V24.5301H56.0239V35.3826H57.8504V29.1253C57.8504 27.2188 59.1387 25.9967 60.2314 25.9967C61.5686 25.9967 62.1068 26.7136 62.1068 28.6039V35.3826H63.9333V29.1253C63.9333 27.1862 64.8629 25.9967 66.1838 25.9967C67.5048 25.9967 68.1897 26.7136 68.1897 28.6039V35.3826H70.0162V28.6364C69.9999 25.4915 68.3854 24.416 66.5426 24.416Z" fill="#343434"/>
<path d="M14.9926 28.3919H13.1661C13.1661 18.3053 15.4492 12.765 21.5158 7.84391L22.6411 9.21269C16.9985 13.8079 14.9926 18.8268 14.9926 28.3919Z" fill="#343434"/>
<path d="M14.9926 27.7891H13.1661V35.2848H14.9926V27.7891Z" fill="#343434"/>
<path d="M8.82801 1H7.08305V39H8.82801V1Z" fill="#343434"/>
<path d="M2.74497 16.578H1V35.2847H2.74497V16.578Z" fill="#343434"/>
<path d="M50.707 17.1647V15.7959H49.2066C47.0213 15.7959 45.4231 16.3173 45.4231 17.9142C45.4231 19.0223 45.945 19.723 47.4779 19.723C49.3045 19.723 50.707 18.7942 50.707 17.1158M80.1758 31.6182V30.2494H78.6755C76.4902 30.2494 74.892 30.7709 74.892 32.3678C74.892 33.4759 75.4138 34.1765 76.9468 34.1765C78.7733 34.1765 80.1758 33.2477 80.1758 31.5693M32.3603 17.6046H34.0401C34.1705 18.8756 34.8555 19.6904 36.6004 19.6904C38.2476 19.6904 38.9651 19.1364 38.9651 17.9794C38.9651 16.8225 38.1171 16.4803 36.4211 16.1707C33.5998 15.6492 32.6376 14.8671 32.6376 12.9931C32.6376 10.9889 34.6109 9.96226 36.3232 9.96226C38.2802 9.96226 39.9599 10.7444 40.2535 13.0909H38.59C38.3291 11.8851 37.6768 11.3636 36.2906 11.3636C35.0349 11.3636 34.2358 11.9828 34.2358 12.928C34.2358 13.8731 34.7576 14.2804 36.7635 14.6389C39.014 15.0463 40.5796 15.5515 40.5796 17.8328C40.5796 19.7882 39.2261 21.1081 36.6004 21.1081C33.9585 21.1081 32.4419 19.8045 32.344 17.6046M57.8504 4.65015H56.0239V20.9126H57.8504V4.65015ZM63.9169 4.65015H62.0904V20.9126H63.9169V4.65015ZM69.9993 10.0762H68.1728V20.9124H69.9993V10.0762ZM73.1958 15.6492V15.4863C73.1958 12.2273 75.2996 9.96226 78.2839 9.96226C80.7954 9.96226 83.1764 11.4614 83.1764 15.3233V15.8774H74.9897C75.0712 18.3379 76.2617 19.6904 78.4796 19.6904C80.1594 19.6904 81.1379 19.0712 81.3662 17.8165H83.0948C82.7198 19.9837 80.9095 21.1081 78.4633 21.1081C75.3811 21.1081 73.1958 18.9571 73.1958 15.6492ZM81.3988 14.4923C81.2357 12.2762 80.0778 11.3636 78.2839 11.3636C76.49 11.3636 75.3322 12.5532 75.0386 14.4923H81.3988ZM43.6945 17.9305C43.6945 15.4374 46.3201 14.5901 49.1414 14.5901H50.7233V13.8079C50.7233 12.0969 50.0546 11.3799 48.3912 11.3799C46.8909 11.3799 46.0591 11.9991 45.8961 13.319H44.1511C44.3794 10.8748 46.3527 9.96226 48.4564 9.96226C50.5602 9.96226 52.4193 10.8096 52.4193 13.8079V20.9125H50.6906V19.56C49.9079 20.6192 48.6195 21.2058 47.2986 21.1244C45.2764 21.1244 43.6782 20.1467 43.6782 17.9468L43.6945 17.9305ZM73.1633 32.3841C73.1633 29.891 75.8215 29.0436 78.6102 29.0436H80.1921V28.2615C80.1921 26.5505 79.5235 25.8335 77.8601 25.8335C76.3597 25.8335 75.528 26.4527 75.3649 27.7726H73.6363C73.8646 25.3121 75.8379 24.4158 77.9416 24.4158C80.0453 24.4158 81.9045 25.2632 81.9045 28.2615V35.3661H80.1758V33.9973C79.393 35.0565 78.121 35.6431 76.7837 35.5616C74.7615 35.5616 73.1633 34.6002 73.1633 32.4004V32.3841ZM85.0357 30.1028V29.9398C85.0357 26.6808 87.1395 24.4158 90.1239 24.4158C92.6353 24.4158 95 25.915 95 29.7769V30.3309H86.8296C86.9112 32.7915 88.1017 34.144 90.3196 34.144C91.9993 34.144 92.9452 33.5247 93.2061 32.27H94.9348C94.5597 34.4373 92.7495 35.5616 90.3033 35.5616C87.2373 35.5616 85.0521 33.4107 85.0357 30.1028ZM93.255 28.9458C93.092 26.7297 91.9341 25.8172 90.1402 25.8172C88.3463 25.8172 87.1884 27.0067 86.8949 28.9458H93.255ZM67.8307 5.49736C67.8307 4.7315 68.4504 4.11229 69.2332 4.11229C70.016 4.11229 70.6357 4.7315 70.6357 5.49736C70.6357 6.26323 70.016 6.88244 69.2332 6.88244C68.4504 6.86615 67.8307 6.26323 67.8307 5.49736ZM24.2881 5.49733C24.2881 4.9433 24.6306 4.43815 25.1524 4.21002C25.6743 3.99818 26.2777 4.11225 26.6854 4.51962C27.0931 4.9107 27.2072 5.51362 26.9789 6.03506C26.7669 6.5565 26.2451 6.8824 25.6743 6.8824C24.9078 6.86611 24.2881 6.26319 24.2881 5.49733ZM66.5426 24.416C65.3032 24.3997 64.1616 25.0515 63.5582 26.1107C63.1016 25.0515 62.0416 24.3834 60.9 24.416C59.628 24.3834 58.4212 25.0352 57.7689 26.127V24.5301H56.0239V35.3826H57.8504V29.1253C57.8504 27.2188 59.1387 25.9967 60.2314 25.9967C61.5686 25.9967 62.1068 26.7136 62.1068 28.6039V35.3826H63.9333V29.1253C63.9333 27.1862 64.8629 25.9967 66.1838 25.9967C67.5048 25.9967 68.1897 26.7136 68.1897 28.6039V35.3826H70.0162V28.6364C69.9999 25.4915 68.3854 24.416 66.5426 24.416ZM14.9926 28.3919H13.1661C13.1661 18.3053 15.4492 12.765 21.5158 7.84391L22.6411 9.21269C16.9985 13.8079 14.9926 18.8268 14.9926 28.3919ZM14.9926 27.7891H13.1661V35.2848H14.9926V27.7891ZM8.82801 1H7.08305V39H8.82801V1ZM2.74497 16.578H1V35.2847H2.74497V16.578Z" stroke="#343434" stroke-width="0.5"/>
</svg>

<svg width="96" height="40" fill="none" xmlns="http://www.w3.org/2000/svg"><path d="M57.85 4.65h-1.826v16.263h1.826V4.65ZM63.917 4.65H62.09v16.263h1.827V4.65ZM70 10.076h-1.827v10.836h1.826V10.076ZM73.196 15.65v-.164c0-3.259 2.104-5.524 5.088-5.524 2.511 0 4.892 1.5 4.892 5.361v.554H74.99c.081 2.46 1.272 3.813 3.49 3.813 1.68 0 2.658-.619 2.886-1.873h1.729c-.375 2.167-2.186 3.291-4.632 3.291-3.082 0-5.267-2.15-5.267-5.459Zm8.203-1.158c-.163-2.216-1.321-3.128-3.115-3.128-1.794 0-2.952 1.19-3.245 3.128h6.36ZM43.694 17.93c0-2.493 2.626-3.34 5.447-3.34h1.582v-.782c0-1.711-.668-2.428-2.332-2.428-1.5 0-2.332.62-2.495 1.939h-1.745c.228-2.444 2.202-3.357 4.305-3.357 2.104 0 3.963.848 3.963 3.846v7.105h-1.728V19.56a3.924 3.924 0 0 1-3.392 1.564c-2.023 0-3.62-.977-3.62-3.177l.015-.017Zm7.013-.765v-1.37h-1.5c-2.186 0-3.784.522-3.784 2.12 0 1.107.522 1.808 2.055 1.808 1.826 0 3.229-.929 3.229-2.607M73.163 32.384c0-2.493 2.659-3.34 5.447-3.34h1.582v-.782c0-1.712-.668-2.428-2.332-2.428-1.5 0-2.332.619-2.495 1.939h-1.729c.229-2.46 2.202-3.357 4.306-3.357 2.103 0 3.963.847 3.963 3.846v7.104h-1.73v-1.369a3.906 3.906 0 0 1-3.391 1.565c-2.023 0-3.62-.962-3.62-3.162v-.016Zm7.013-.766V30.25h-1.5c-2.186 0-3.784.522-3.784 2.119 0 1.108.522 1.808 2.055 1.808 1.826 0 3.229-.928 3.229-2.607M85.036 30.103v-.163c0-3.26 2.103-5.524 5.088-5.524 2.511 0 4.876 1.499 4.876 5.36v.555h-8.17c.081 2.46 1.272 3.813 3.49 3.813 1.68 0 2.625-.62 2.886-1.874h1.729c-.375 2.167-2.186 3.292-4.632 3.292-3.066 0-5.25-2.151-5.267-5.46Zm8.219-1.157c-.163-2.216-1.32-3.129-3.115-3.129-1.794 0-2.952 1.19-3.245 3.129h6.36ZM32.36 17.605h1.68c.13 1.27.816 2.085 2.56 2.085 1.648 0 2.365-.554 2.365-1.71 0-1.157-.848-1.5-2.544-1.81-2.821-.52-3.783-1.303-3.783-3.177 0-2.004 1.973-3.03 3.685-3.03 1.957 0 3.637.781 3.93 3.128H38.59c-.26-1.206-.913-1.727-2.3-1.727-1.255 0-2.054.619-2.054 1.564 0 .945.522 1.352 2.528 1.71 2.25.408 3.816.914 3.816 3.195 0 1.955-1.354 3.275-3.98 3.275-2.642 0-4.158-1.303-4.256-3.503M67.83 5.497c0-.766.62-1.385 1.403-1.385s1.403.62 1.403 1.385c0 .766-.62 1.385-1.403 1.385-.783-.016-1.402-.619-1.402-1.385ZM24.288 5.497c0-.554.343-1.059.864-1.287a1.413 1.413 0 0 1 1.533.31c.408.39.522.994.294 1.515-.212.521-.734.847-1.305.847-.766-.016-1.386-.619-1.386-1.385ZM66.543 24.416a3.377 3.377 0 0 0-2.985 1.695 2.812 2.812 0 0 0-2.658-1.695 3.546 3.546 0 0 0-3.131 1.711V24.53h-1.745v10.853h1.826v-6.258c0-1.906 1.289-3.128 2.381-3.128 1.338 0 1.876.717 1.876 2.607v6.779h1.826v-6.258c0-1.939.93-3.128 2.25-3.128 1.322 0 2.007.717 2.007 2.607v6.779h1.826v-6.747c-.016-3.145-1.63-4.22-3.473-4.22ZM14.993 28.392h-1.827c0-10.087 2.283-15.627 8.35-20.548l1.125 1.369c-5.642 4.595-7.648 9.614-7.648 19.179Z" fill="#fff"/><path d="M14.993 27.79h-1.827v7.495h1.827v-7.496ZM8.828 1H7.083v38h1.745V1ZM2.745 16.578H1v18.707h1.745V16.578Z" fill="#fff"/><path d="M50.707 17.165v-1.37h-1.5c-2.186 0-3.784.522-3.784 2.12 0 1.107.522 1.808 2.055 1.808 1.826 0 3.229-.929 3.229-2.607m29.469 14.502V30.25h-1.5c-2.186 0-3.784.522-3.784 2.119 0 1.108.522 1.808 2.055 1.808 1.826 0 3.229-.928 3.229-2.607M32.36 17.605h1.68c.13 1.27.816 2.085 2.56 2.085 1.648 0 2.365-.554 2.365-1.71 0-1.157-.848-1.5-2.544-1.81-2.821-.52-3.783-1.303-3.783-3.177 0-2.004 1.973-3.03 3.685-3.03 1.957 0 3.637.781 3.93 3.128H38.59c-.26-1.206-.913-1.727-2.3-1.727-1.255 0-2.054.619-2.054 1.564 0 .945.522 1.352 2.528 1.71 2.25.408 3.816.914 3.816 3.195 0 1.955-1.354 3.275-3.98 3.275-2.642 0-4.158-1.303-4.256-3.503M57.85 4.65h-1.826v16.263h1.826V4.65Zm6.067 0H62.09v16.263h1.827V4.65Zm6.082 5.426h-1.826v10.836h1.826V10.076Zm3.197 5.573v-.163c0-3.259 2.104-5.524 5.088-5.524 2.511 0 4.892 1.5 4.892 5.361v.554H74.99c.081 2.46 1.272 3.813 3.49 3.813 1.68 0 2.658-.619 2.886-1.873h1.729c-.375 2.167-2.186 3.291-4.632 3.291-3.082 0-5.267-2.15-5.267-5.459Zm8.203-1.157c-.163-2.216-1.321-3.128-3.115-3.128-1.794 0-2.952 1.19-3.245 3.128h6.36ZM43.694 17.93c0-2.493 2.626-3.34 5.447-3.34h1.582v-.782c0-1.711-.668-2.428-2.332-2.428-1.5 0-2.332.62-2.495 1.939h-1.745c.228-2.444 2.202-3.357 4.305-3.357 2.104 0 3.963.848 3.963 3.846v7.105h-1.728V19.56a3.924 3.924 0 0 1-3.392 1.564c-2.023 0-3.62-.977-3.62-3.177l.015-.017Zm29.47 14.454c0-2.493 2.657-3.34 5.446-3.34h1.582v-.782c0-1.712-.668-2.428-2.332-2.428-1.5 0-2.332.619-2.495 1.939h-1.729c.229-2.46 2.202-3.357 4.306-3.357 2.103 0 3.963.847 3.963 3.846v7.104h-1.73v-1.369a3.906 3.906 0 0 1-3.391 1.565c-2.023 0-3.62-.962-3.62-3.162v-.016Zm11.872-2.281v-.163c0-3.26 2.103-5.524 5.088-5.524 2.511 0 4.876 1.499 4.876 5.36v.555h-8.17c.081 2.46 1.272 3.813 3.49 3.813 1.68 0 2.625-.62 2.886-1.874h1.729c-.375 2.167-2.186 3.292-4.632 3.292-3.066 0-5.25-2.151-5.267-5.46Zm8.219-1.157c-.163-2.216-1.32-3.129-3.115-3.129-1.794 0-2.952 1.19-3.245 3.129h6.36ZM67.831 5.497c0-.766.62-1.385 1.402-1.385.783 0 1.403.62 1.403 1.385 0 .766-.62 1.385-1.403 1.385-.783-.016-1.402-.619-1.402-1.385Zm-43.543 0c0-.554.343-1.059.864-1.287a1.413 1.413 0 0 1 1.533.31c.408.39.522.994.294 1.515-.212.521-.734.847-1.305.847-.766-.016-1.386-.619-1.386-1.385Zm42.255 18.919a3.377 3.377 0 0 0-2.985 1.695 2.812 2.812 0 0 0-2.658-1.695 3.546 3.546 0 0 0-3.131 1.711V24.53h-1.745v10.853h1.826v-6.258c0-1.906 1.289-3.128 2.381-3.128 1.338 0 1.876.717 1.876 2.607v6.779h1.826v-6.258c0-1.939.93-3.128 2.25-3.128 1.322 0 2.007.717 2.007 2.607v6.779h1.826v-6.747c-.016-3.145-1.63-4.22-3.473-4.22Zm-51.55 3.976h-1.827c0-10.087 2.283-15.627 8.35-20.548l1.125 1.369c-5.642 4.595-7.648 9.614-7.648 19.179Zm0-.603h-1.827v7.496h1.827v-7.496ZM8.828 1H7.083v38h1.745V1ZM2.745 16.578H1v18.707h1.745V16.578Z" stroke="#fff" stroke-width=".5"/></svg>
